assets/offering/skadegorelse-grey.svg

<svg width="48" height="48" viewBox="0 0 48 48" fill="none" xmlns="http://www.w3.org/2000/svg">
<g opacity="0.3">
<mask id="mask0" mask-type="alpha" maskUnits="userSpaceOnUse" x="0" y="0" width="48" height="48">
<path fill-rule="evenodd" clip-rule="evenodd" d="M0 0H47.9999V47.9998H0V0Z" fill="white"/>
</mask>
<g mask="url(#mask0)">
<path fill-rule="evenodd" clip-rule="evenodd" d="M48 24C48 37.255 37.255 48 24 48C10.745 48 0 37.255 0 24C0 10.745 10.745 0 24 0C37.255 0 48 10.745 48 24" fill="#1BE9B6"/>
</g>
<path fill-rule="evenodd" clip-rule="evenodd" d="M16.1826 33.3457L17.8496 35.0137L22.8886 29.9747L35.5656 20.4217C36.3576 19.8257 36.8516 18.9167 36.9206 17.9277C36.9906 16.9387 36.6276 15.9697 35.9266 15.2687C35.2246 14.5677 34.2506 14.2067 33.2686 14.2747C32.2796 14.3447 31.3706 14.8377 30.7736 15.6297L21.2206 28.3067L16.1826 33.3457ZM17.8496 36.4279L14.7686 33.3459L20.4896 27.6249L29.9746 15.0289C30.7456 14.0049 31.9206 13.3669 33.1986 13.2779C34.4746 13.1839 35.7286 13.6569 36.6336 14.5619C37.5396 15.4679 38.0076 16.7199 37.9176 17.9979C37.8286 19.2749 37.1906 20.4499 36.1666 21.2209L23.5426 30.7279L17.8496 36.4279Z" fill="white"/>
<path fill-rule="evenodd" clip-rule="evenodd" d="M18.4356 36.8067C18.3076 36.8067 18.1796 36.7577 18.0816 36.6607L14.5366 33.1147C14.3406 32.9187 14.3406 32.6027 14.5366 32.4077C14.7316 32.2117 15.0476 32.2117 15.2436 32.4077L18.7896 35.9527C18.9846 36.1487 18.9846 36.4647 18.7896 36.6607C18.6916 36.7577 18.5636 36.8067 18.4356 36.8067" fill="white"/>
<path fill-rule="evenodd" clip-rule="evenodd" d="M11.5253 23.6387H10.5703C10.2943 23.6387 10.0703 23.4147 10.0703 23.1387C10.0703 22.8627 10.2943 22.6387 10.5703 22.6387H11.5253C11.8013 22.6387 12.0253 22.8627 12.0253 23.1387C12.0253 23.4147 11.8013 23.6387 11.5253 23.6387" fill="white"/>
<path fill-rule="evenodd" clip-rule="evenodd" d="M18.2031 36.0746L17.4961 35.3676L22.1821 30.6816L22.8891 31.3886L18.2031 36.0746Z" fill="white"/>
<path fill-rule="evenodd" clip-rule="evenodd" d="M15.8603 33.7319L15.1533 33.0249L19.8393 28.3389L20.5463 29.0459L15.8603 33.7319Z" fill="white"/>
<path fill-rule="evenodd" clip-rule="evenodd" d="M22.5351 31.7426L19.4531 28.6606L20.1601 27.9536L23.2421 31.0356L22.5351 31.7426Z" fill="white"/>
<path fill-rule="evenodd" clip-rule="evenodd" d="M18.0253 23.6387H14.5703C14.2943 23.6387 14.0703 23.4147 14.0703 23.1387C14.0703 22.8627 14.2943 22.6387 14.5703 22.6387H18.0253C18.3013 22.6387 18.5253 22.8627 18.5253 23.1387C18.5253 23.4147 18.3013 23.6387 18.0253 23.6387" fill="white"/>
<path fill-rule="evenodd" clip-rule="evenodd" d="M17.8251 14.1938H16.8701C16.5941 14.1938 16.3701 13.9698 16.3701 13.6938C16.3701 13.4178 16.5941 13.1938 16.8701 13.1938H17.8251C18.1011 13.1938 18.3251 13.4178 18.3251 13.6938C18.3251 13.9698 18.1011 14.1938 17.8251 14.1938" fill="white"/>
<path fill-rule="evenodd" clip-rule="evenodd" d="M24.3251 14.1938H20.8701C20.5941 14.1938 20.3701 13.9698 20.3701 13.6938C20.3701 13.4178 20.5941 13.1938 20.8701 13.1938H24.3251C24.6011 13.1938 24.8251 13.4178 24.8251 13.6938C24.8251 13.9698 24.6011 14.1938 24.3251 14.1938" fill="white"/>
<path fill-rule="evenodd" clip-rule="evenodd" d="M16.9755 18.9165H13.0205C12.7445 18.9165 12.5205 18.6925 12.5205 18.4165C12.5205 18.1405 12.7445 17.9165 13.0205 17.9165H16.9755C17.2515 17.9165 17.4755 18.1405 17.4755 18.4165C17.4755 18.6925 17.2515 18.9165 16.9755 18.9165" fill="white"/>
<path fill-rule="evenodd" clip-rule="evenodd" d="M21.4755 18.9165H20.0205C19.7445 18.9165 19.5205 18.6925 19.5205 18.4165C19.5205 18.1405 19.7445 17.9165 20.0205 17.9165H21.4755C21.7515 17.9165 21.9755 18.1405 21.9755 18.4165C21.9755 18.6925 21.7515 18.9165 21.4755 18.9165" fill="white"/>
</g>
</svg>

<svg width="48" height="48" viewBox="0 0 48 48" fill="none" xmlns="http://www.w3.org/2000/svg"><g opacity=".3"><mask id="a" maskUnits="userSpaceOnUse" x="0" y="0" width="48" height="48"><path fill-rule="evenodd" clip-rule="evenodd" d="M0 0h48v48H0V0z" fill="#fff"/></mask><g mask="url(#a)"><path fill-rule="evenodd" clip-rule="evenodd" d="M48 24c0 13.255-10.745 24-24 24S0 37.255 0 24 10.745 0 24 0s24 10.745 24 24" fill="#1BE9B6"/></g><path fill-rule="evenodd" clip-rule="evenodd" d="M16.183 33.346l1.667 1.668 5.039-5.04 12.677-9.552a3.418 3.418 0 001.355-2.494 3.418 3.418 0 00-.994-2.66 3.425 3.425 0 00-5.153.361L21.22 28.308l-5.038 5.039zm1.667 3.082l-3.081-3.082 5.72-5.721 9.486-12.596a4.418 4.418 0 013.224-1.751 4.406 4.406 0 013.435 1.284 4.418 4.418 0 011.284 3.436 4.418 4.418 0 01-1.751 3.223l-12.624 9.507-5.693 5.7z" fill="#fff"/><path fill-rule="evenodd" clip-rule="evenodd" d="M18.436 36.807a.502.502 0 01-.354-.146l-3.545-3.546a.499.499 0 010-.707.499.499 0 01.707 0l3.546 3.545a.502.502 0 01-.354.854M11.525 23.639h-.955a.5.5 0 010-1h.955a.5.5 0 010 1" fill="#fff"/><path fill-rule="evenodd" clip-rule="evenodd" d="M18.203 36.075l-.707-.707 4.686-4.686.707.707-4.686 4.686zM15.86 33.732l-.707-.707 4.686-4.686.707.707-4.686 4.686z" fill="#fff"/><path fill-rule="evenodd" clip-rule="evenodd" d="M22.535 31.743l-3.082-3.082.707-.707 3.082 3.082-.707.707zM18.025 23.639H14.57a.5.5 0 010-1h3.455a.5.5 0 010 1M17.825 14.194h-.955a.5.5 0 010-1h.955a.5.5 0 010 1M24.325 14.194H20.87a.5.5 0 010-1h3.455a.5.5 0 010 1M16.976 18.916H13.02a.5.5 0 010-1h3.954a.5.5 0 010 1M21.476 18.916H20.02a.5.5 0 010-1h1.456a.5.5 0 010 1" fill="#fff"/></g></svg>
